resources/haticons/SVG/cached.svg

<!-- Generated by IcoMoon.io -->
<svg version="1.1" xmlns="http://www.w3.org/2000/svg" width="24" height="24" viewBox="0 0 24 24">
<title>cached</title>
<path d="M6 12h3l-3.984 3.984-4.031-3.984h3q0-3.281 2.367-5.648t5.648-2.367q2.344 0 4.266 1.266l-1.453 1.453q-1.266-0.703-2.813-0.703-2.484 0-4.242 1.758t-1.758 4.242zM18.984 8.016l4.031 3.984h-3q0 3.281-2.367 5.648t-5.648 2.367q-2.344 0-4.266-1.266l1.453-1.453q1.313 0.703 2.813 0.703 2.484 0 4.242-1.758t1.758-4.242h-3z"></path>
</svg>

<svg xmlns="http://www.w3.org/2000/svg" width="24" height="24"><path d="M6 12h3l-3.984 3.984L.985 12h3q0-3.281 2.367-5.648T12 3.985q2.344 0 4.266 1.266l-1.453 1.453Q13.547 6.001 12 6.001q-2.484 0-4.242 1.758T6 12.001zm12.984-3.984L23.015 12h-3q0 3.281-2.367 5.648T12 20.015q-2.344 0-4.266-1.266l1.453-1.453q1.313.703 2.813.703 2.484 0 4.242-1.758T18 11.999h-3z"/></svg>
